24x24/panel/mellowplayer-panel.svg

<svg height="24" width="24" xmlns="http://www.w3.org/2000/svg"><g fill="#8b9cbe"><path d="m9 4a5 5 0 0 0 -5 5 5 5 0 0 0 .305 1.687 3 3 0 0 1 2.695-1.687 3 3 0 0 1 .006 0v-2.596s-.023-.266.185-.371c.203-.101.397.061.397.061l1.969 1.17a3 3 0 0 1 2.443-1.264 3 3 0 0 1 1.152.232 5 5 0 0 0 -4.152-2.232zm5.24 3.008a3 3 0 0 1 .76 1.992 3 3 0 0 1 -.309 1.318l2.026 1.205s.283.14.283.473a.476.476 0 0 1 -.287.443l-2.035 1.209a3 3 0 0 1 .322 1.352 3 3 0 0 1 -.758 1.988 5 5 0 0 0 4.758-4.988 5 5 0 0 0 -4.76-4.992zm-9.937 6.295a5 5 0 0 0 -.303 1.697 5 5 0 0 0 5 5 5 5 0 0 0 4.158-2.232 3 3 0 0 1 -1.158.232 3 3 0 0 1 -2.465-1.295l-2.06 1.225s-.14.122-.319.043c-.203-.091-.15-.323-.15-.323v-2.65a3 3 0 0 1 -.006 0 3 3 0 0 1 -2.697-1.697z"/><path d="m12 6a3 3 0 0 0 -2.443 1.266l2.672 1.587 2.464 1.467a3 3 0 0 0 .307-1.32 3 3 0 0 0 -3-3zm-5 3a3 3 0 0 0 -3 3 3 3 0 0 0 3 3 3 3 0 0 0 .006 0v-6a3 3 0 0 0 -.006 0zm7.676 4.65-2.457 1.459-2.686 1.596a3 3 0 0 0 2.467 1.295 3 3 0 0 0 3-3 3 3 0 0 0 -.324-1.35z" opacity=".3"/></g></svg>

<svg xmlns="http://www.w3.org/2000/svg" width="24" height="24"><defs><style id="current-color-scheme" type="text/css">.ColorScheme-Text{color:#8b9cbe}</style></defs><path style="fill:currentColor" class="ColorScheme-Text" d="M9 4a5 5 0 0 0-5 5 5 5 0 0 0 .305 1.687A3 3 0 0 1 7 9a3 3 0 0 1 .006 0V6.404s-.023-.266.185-.371c.203-.101.397.061.397.061l1.969 1.17A3 3 0 0 1 12 6a3 3 0 0 1 1.152.232A5 5 0 0 0 9 4zm5.24 3.008A3 3 0 0 1 15 9a3 3 0 0 1-.309 1.318l2.026 1.205s.283.14.283.473a.476.476 0 0 1-.287.443l-2.035 1.209A3 3 0 0 1 15 15a3 3 0 0 1-.758 1.988A5 5 0 0 0 19 12a5 5 0 0 0-4.76-4.992zm-9.937 6.295A5 5 0 0 0 4 15a5 5 0 0 0 5 5 5 5 0 0 0 4.158-2.232A3 3 0 0 1 12 18a3 3 0 0 1-2.465-1.295l-2.06 1.225s-.14.122-.319.043c-.203-.091-.15-.323-.15-.323V15A3 3 0 0 1 7 15a3 3 0 0 1-2.697-1.697z"/><path style="opacity:.3;fill:currentColor" class="ColorScheme-Text" d="M12 6a3 3 0 0 0-2.443 1.266l2.672 1.587 2.464 1.467A3 3 0 0 0 15 9a3 3 0 0 0-3-3zM7 9a3 3 0 0 0-3 3 3 3 0 0 0 3 3 3 3 0 0 0 .006 0V9A3 3 0 0 0 7 9zm7.676 4.65-2.457 1.459-2.686 1.596A3 3 0 0 0 12 18a3 3 0 0 0 3-3 3 3 0 0 0-.324-1.35z"/></svg>
